X:1
T:Second Battle Victorious March.
T:Second Battle Victorious March.
T:W. L. NEEDHAM.
T:Copyright 1897 by J. L. Gardner Music Co. (Needham &amp; Gardner.)
T:Copyright 1897 by J. L. Gardner Music Co. (Needham &amp; Gardner.)
T:Copyright 1897 by J. L. Gardner Music Co. (Needham &amp; Gardner.)
C:W. L. NEEDHAM.
Z:Copyright 1897 by J. L. Gardner Music Co. (Needham & Gardner.)
%%score { ( 1 3 ) | 2 }
L:1/8
Q:1/4=170
M:4/4
K:Bb
V:1 treble nm="Piano" snm="Pno."
V:3 treble 
V:2 bass 
V:1
"^Moderato." [DFB]3 [DFB] [DF=B]3 [DFB] | [=E_Bc]2 [EB^c]2 [FBd]2 [_Adf]2 | [GBeg]2 z2 [Acea]2 z2 | %3
 [Bdfb]2 (3fgf =e2 f2 |][Q:1/4=180]"^MARCH." [Fd]3 [=E^c] [Fd]3 [Ec] | dF=EF GFEF | %6
 c3 A [Geg]2 [Ff]2 | d3 B G2 F2 | [Fd]3 [=E^c] [Fd]3 [Ec] | dF=EF GFBd | %10
 [=EBc]3 [EBd] [EB=e]2 [Beb]2 | b>a a>g [Acf]2 [Af]2 ||!f! [A_ea]3 c' [Aea]3 g | gf=ef dFBd | %14
 G3 B F2 B2 | cGAB cf=ef | [A_ea]3 c' [Aea]3 g | gf=ef dFBd | G3 B F2 [Ff]2 | c=Bcd _B4 | %20
 [A_ea]3 c' [Aea]3 g | gf=ef dFBd | G3 B F2 B2 | cGAB cf=ef | [A_ea]3 c' [Aea]3 g | gf=ef dFBd | %26
 G3 B F2 [Ff]2 | c=Bcd _B2 (3Bcd ||[K:Eb]!f! e2 z G c3 B | =ABGE B,3 B, | =A,B,CB, G,B,F>E | %31
 [B,CE]2 [A,B,D]2 z2 z c |!mf! [Fcf]3 B [EBe]3 B | cB=AB [Gg]3 [Ee] | %34
"^rit." [Ff]3!<(! [Gg] [=A=a][ee'][dd'][cc']!<)! | [Bb]2 [Bdb]>[Bdb] [Bdb]2 (3Bcd | e2 z G c3 B | %37
 =ABGE B,3 B, | =A,B,CB, G,>G,^F,G, | B,2 A,2 z2 z c |!mf! [Fcf]3 B [EBe]3 B | cB=AB [Gg]3 B | %42
 cB=AB [=A=a][Bb][cc'][dd'] | [ee']2 z2 [ege']2 z2 | e2 d2 c2 z e | d>gd>e c2 z2 | %46
 [Aa]3 [Gg] [Ff]2 [^F^f]2 | G^FGE C2 z2 | e2 z2 c2 z2 | d>gd>e c2 z2 | [Ff]3 [Gg] [=A=a]2 [ee']2 | %51
"^rit." [ee']>[dd'][dd']>[cc'] [Bb]2 B2 | [DA]3 [DAB] [DAc]2 [Ad]2 | [Ada]3 b afdB | %54
 G3 =B [GBd]2 [GBdf]2 | [G=Bg]3 a gfed | c3 e B3 e | G3 ^F GBeg | [=Aef]3 [Aef] [Ac]2 [Aceg]2 | %59
 [_Adf]2 (3bc'b =a2 b2 | [DA]3 [DAB] [DAc]2 [Ad]2 | [Ada]3 b afdB | G3 =B [GBd]2 [GBdf]2 | %63
 [G=Bg]3 a gfed | c3 e B3 e | G3 ^F GBeg |!<(! [=Aef]2 [Bdb]2 [c_ac']2 [dad']2!<)! | %67
 [ege']2 (3bc'd' [ege']2 z [ege'] | [gbd'g']2 z2{/[G,B,E]-} [G,B,E]4- | [G,B,E]2 z2 z4 |] %70
V:2
 [B,,B,]4 [_A,,_A,]4 | [G,,G,]2 [_G,,_G,]2 [F,,F,]2 [D,,D,]2 | [E,,E,]2 z2 [F,,F,]2 z2 | %3
 [B,,,B,,]2 z2 z4 |] [B,,B,]2 [F,B,D]2 [D,,D,]2 [F,B,D]2 | [B,,B,]2 [F,B,D]2 [D,,D,]2 [F,B,D]2 | %6
 [F,,F,]2 [A,CF]2 [C,,C,]2 [A,CF]2 | [B,,B,]2 [F,B,D]2 [F,B,^C]2 [F,B,D]2 | %8
 [B,,,B,,]2 [F,B,D]2 [D,,D,]2 [F,B,D]2 | [B,,B,]2 [F,B,D]2 [D,,D,]2 [F,B,D]2 | %10
 [G,,G,]2 [G,B,C]2 [C,,C,]2 [G,B,C=E]2 |"^cresc." [C,,C,]2 [G,B,C=E]2 [F,,F,]2 [A,CF]2 || %12
 [F,,F,]2 [A,C_EF]2 [C,,C,]2 [A,CEF]2 | [C,,C,]2 [F,B,D]2 [D,,D,]2 [F,B,D]2 | %14
 [E,,E,]2 [G,B,E]2 [B,,B,]2 [F,B,D]2 | [C,,E,]2 [G,B,C=E]2 [F,,F,]2 [A,C_E]2 | %16
 [F,,F,]2 [A,C_EF]2 [C,,C,]2 [A,CEF]2 | [B,,B,]2 [F,B,D]2 [D,,D,]2 [F,B,D]2 | %18
 [E,,E,]2 [G,B,E]2 [B,,B,]2 [F,B,D]2 | [F,,F,]2 [F,A,CE]2 [G,B,D]4 | %20
 [F,,F,]2 [A,CEF]2 [C,,C,]2 [A,CEF]2 | [C,,C,]2 [F,B,D]2 [D,,D,]2 [F,B,D]2 | %22
 [E,,E,]2 [G,B,E]2 [B,,B,]2 [F,B,D]2 | [C,,E,]2 [G,B,C=E]2 [F,,F,]2 [A,C_E]2 | %24
 [F,,F,]2 [A,CEF]2 [C,,C,]2 [A,CEF]2 | [B,,B,]2 [F,B,D]2 [D,,D,]2 [F,B,D]2 | %26
 [E,,E,]2 [G,B,E]2 [B,,B,]2 [F,B,D]2 | [F,,F,]2 [F,A,CE]2 [G,B,D]2 z2 || %28
[K:Eb] [E,,E,]2 [G,B,E]2 [G,,G,]2 [G,B,E]2 | [E,,E,]2 [E,G,B,]2 [E,,E,]2 [B,,E,A,]2 | %30
 [E,,E,]2 [B,,E,G,]2 [G,,,G,,]2 [G,,B,,E,]2 | [F,,,F,,]2 [B,,D,]2 [B,,,B,,]2 [F,A,B,]2 | %32
 [A,,A,]2 [A,C]2 [G,,G,]2 [G,B,]2 | [E,,E,]2 [G,B,E]2 [E,,E,]2 [G,B,E]2 | %34
 [F,,F,]2 [=A,CE]2 [C,,C,]2 [A,CE]2 | [B,,B,]2 [F,B,D]2 [F,B,D]2 z2 | %36
 [E,,E,]2 [G,B,E]2 [G,,G,]2 [G,B,E]2 | [E,,E,]2 [E,G,B,]2 [E,,E,]2 [B,,E,A,]2 | %38
 [E,,E,]2 [B,,E,G,]2 [C,,C,]2 [G,,C,=E,]2 | F,,2 [C,F,]2 A,,2 [C,F,]2 | %40
 [A,,A,]2 [A,C]2 [G,,G,]2 [G,B,]2 | [E,,E,]2 [G,B,E]2 [E,,E,]2 [G,B,E]2 | %42
 [F,,F,]2 [=A,CE]2 [C,,C,]2 [A,CE]2 | [E,,E,]2 [G,B,E]2 [E,,E,]2 z2 | %44
 [G,,G,]2 [G,=B,DF]2 [G,CE]2 z2 | [G,,G,]2 [G,=B,DF]2 [G,CE]2 z2 | %46
 [A,,A,]3 [G,,G,] [F,,F,]2 [^F,,^F,]2 | G,^F,G,E, C,2 z2 | [G,,G,]2 [G,=B,DF]2 [G,CE]2 z2 | %49
 [G,,G,]2 [G,=B,DF]2 [G,CE]2 z2 | [F,,F,]2 [=A,CE]2 [F,,F,]2 [A,CE]2 | %51
 [C,,C,]2 [=A,CE]2 [F,B,D]2 z2 | [F,,F,]2 [F,A,B,]2 [B,,,B,,]2 [A,B,D]2 | %53
 [D,,D,]2 [A,B,D]2 [B,,,B,,]2 [A,B,D]2 | [G,,G,]2 [=B,DF]2 [D,,D,]2 [B,DF]2 | %55
 [G,,G,]2 [=B,DF]2 [D,,D,]2 [G,CE]2 | [A,,A,]2 [A,CE]2 [G,,G,]2 [G,B,E]2 | %57
 [E,,E,]2 [G,B,E]2 [E,,E,]2 [G,B,E]2 | [F,,F,]2 [A,CEF]2 [C,,C,]2 [A,CEF]2 | [B,,B,]2 z2 [A,B,D]4 | %60
 [F,,F,]2 [F,A,B,]2 [B,,,B,,]2 [A,B,D]2 | [D,,D,]2 [A,B,D]2 [B,,,B,,]2 [A,B,D]2 | %62
 [G,,G,]2 [=B,DF]2 [D,,D,]2 [B,DF]2 | [G,,G,]2 [=B,DF]2 [D,,D,]2 [G,CE]2 | %64
 [A,,A,]2 [A,CE]2 [G,,G,]2 [G,B,E]2 | [E,,E,]2 [G,B,E]2 [E,,E,]2 [G,B,E]2 | %66
 [F,,F,]2 z2 [B,,B,]2 [A,B,D]2 | [E,,E,]2 z2 [G,B,E]2 z2 | [E,,E,]2 z2 [E,,E,]2 B,,2 | %69
 [E,,E,]2 z2 z4 |] %70
V:3
 x8 | x8 | x8 | x8 |] x8 | x8 | x8 | x8 | x8 | x8 | x8 | [B=e]2 [Be]2 x4 || x8 | x8 | x8 | x8 | %16
 x8 | x8 | x8 | x8 | x8 | x8 | x8 | x8 | x8 | x8 | x8 | x8 ||[K:Eb] x8 | x8 | x6 [G,B,]2 | x8 | %32
 x8 | x8 | x8 | x8 | x8 | x8 | x8 | x8 | x8 | x8 | x8 | x8 | x8 | x8 | x8 | x8 | x8 | x8 | x8 | %51
 x8 | x8 | x8 | x8 | x8 | x8 | x8 | x8 | x8 | x8 | x8 | x8 | x8 | x8 | x8 | x8 | x8 | x8 | x8 |] %70

